X: 264
T: Ben Yaralı Ceylanım
C: Zeki Duygulu
O: Turkey
F: http://compmusic.upf.edu/node/140
N: rast--sarki--azeriyuruksemai--ben_yarali--zeki_duygulu
N: makam= rast
N: form= sarki
N: usul= azeriyuruksemai = 6/8
M: 6/8
L: 1/16
K: C _1/4B ^f  
Q: 1/4=264
%%MIDI tuningsystem comma53
c3B c2d2 B2A2  | B3A B2c2 A2G2  | B3A G2A3GF2  | \
w:  ARANAĞME  |   |   | 
G3F G2B2 d4  | 
w:   | 
c3B c2d2 B2A2  | B3A B2c2 A2G2  | B3A G2A3GF2  | \
w:  ARANAĞME  |   |   | 
G8-G2z2  | 
w:   | 
G4 F2G2 A4  | B2A2 B2G6  | c2B2 c2B2 A2G2  | \
w:  Ben  ya ra lı   |  cey *  la nım   |  ya *  ra lı  cey  | 
A8-A2B2  | G4 F2G2 A4  | 
w:  lan    |  Ben  ya ra lı   | 
B2A2 B2G6  | c2B2 c2B2 A2G2  | A8-A2B2  | \
w:  cey *  la nım   |  ya *  ra lı  cey  |  lan    | 
c2B2 c2d2 B2A2  | B2A2 B2{c}B2 A2G2  | 
w:  Be ni  *  bir_ av  |  cı  vur *  *  du   | 
B2A2 G2A2 G2F2  | G12  | c2B2 c2d2 B2A2  | \
w:  bu ra *  lı  cey  |  lan    |  Be ni  *  bir_ av  | 
B2A2 B2{c}B2 A2G2  | B2A2 G2A2 G2F2  | 
w:  cı  vur *  *  du   |  bu ra *  lı  cey  | 
G12  | d2d4d2 d4  | e2d2 e2d6  | e2d3ed2 c2B2  | \
w:  lan    |  Ka şı  gö zü   |  sür *  me li   |  ka ra *  lı  *  cey  | 
d2c2 d2c4B2  | d2d4d2 d4  | 
w:  lan    |  Ka şı  gö zü   | 
e2d2 e2d6  | e2d3ed2 c2B2  | d2c2 d2c4B2  | \
w:  sür *  me li   |  ka ra *  lı  *  cey  |  lan    | 
c2B2 c2d2 B2A2  | 
w:  Be ni  *  bir_ av  | 
B2A2 B2B2 A2G2  | B2A2 G2A2 G2F2  | G12  | \
w:  cı  vur *  du   |  bu ra *  lı  *  cey  |  lan    | 
c2B2 c2d2 B2A2  | B2A2 B2B2 A2G2  | 
w:  Be ni  *  bir_ av  |  cı  vur *  du   | 
B2A2 G2A2 G2F2  | G12  | |


